X:1
T:Siobhán O'Donnell's
R:reel
M:4/4
L:1/8
K:A
|:~A2ce ~a2ba|~f2fa fece|~f2fe cBAF|EFAB cBAF|
|ECEF ABce|~f2fa fece|~f2ec dBcA|BAGB cA~A2:|
|:~A2ce fece|fA~A2 fAeA|fA~A2 ~f2ef|aefa eAce|
|~f2fe cBAF|~E2EF ABce|~f2ec dBcA|BAGB cA~A2:|